X: 10095
T: RYAN'S REEL
C: Bob McQuillen 17 Oct 93
B: Bob's Note Book 10 #95
%R: reel
Z: 2020 John Chambers <jc:trillian.mit.edu>
M: C
L: 1/8
K: D
dB \
| A2FA dfed | B2AB defd | A2FA defa | bafa fdBd |\
| A2FA dfed | B2AB defd | AFAd BAdf | afdf ef  :|
|: de \
| f2ef defa | bafd edBA | f2df edfa | fdBd ABde |\
| f2ef defa | bafd edef | g2bg f2af | edBG A2  :|
%%begintext align
%% Ryan Thomson lives over in
%% Newmarket, NH, in the Seacoast Region. He writes under the name of "Captain
%% Fiddle", and he's put out whole bunch of fine musical publications. Ryan's a real
%% good fiddle player, too, and when his right bow arm gave out on him, he got a fiddle
%% set up for a left-handed player and taught himself to play that way. Try that sometime
%% and you will learn the meaning of true dedication. All the best to you, Ryan -
%% we'll have some tunes the next time we meet -
%%endtext

%%sep 1 1 500

%%sep 1 1 500

